X: 30046
T: Off To The Hunt
R: jig
M: 6/8
K: Adorian
B|ABA ABd|ege dBA|GFG BGB|dBG AGE|
ABA ABd|ede gab|age dBd|eAA A2:|
f/g/|a^ga ABA|a^ga A2 f|gfg GFG|gfg GAB|
cBc dcd|ede gab|age dBd|edA A2:|

